actions/22/view-list-tree.svg

<svg xmlns="http://www.w3.org/2000/svg" viewBox="0 0 22 22">
  <defs id="defs3051">
<style type="text/css" id="current-color-scheme">.ColorScheme-Text {color:#fcfcfc;}</style>
  </defs>
 <path 
    style="fill:currentColor;fill-opacity:1;stroke:none" 
    d="m 3,6 c 0,3 0,4 0,4 h 6 v 6 h 1 2 v 3 h 4 c 0,0 3,0 3,-3 0,-3 0,-4 0,-4 h -7 v 3 H 10 V 10 7 h 2 v 3 h 7 C 19,10 19,9 19,6 19,3 16,3 16,3 H 12 V 6 H 10 V 3 H 6 C 6,3 3,3 3,6 Z M 4,6 C 4,4 6,4 6,4 H 9 V 9 H 4 C 4,9 4,8 4,6 Z m 9,-2 h 3 c 0,0 2,0 2,2 0,2 0,3 0,3 h -5 z"
	class="ColorScheme-Text"
    />  
</svg>

<svg xmlns="http://www.w3.org/2000/svg" viewBox="0 0 22 22">
  <defs id="defs3051">
    <style type="text/css" id="current-color-scheme">
      .ColorScheme-Text {
        color:#eff0f1;
      }
      </style>
  </defs>
 <path 
    style="fill:currentColor;fill-opacity:1;stroke:none" 
    d="M 3 3 L 3 10 L 9 10 L 9 16 L 10 16 L 12 16 L 12 19 L 19 19 L 19 12 L 12 12 L 12 15 L 10 15 L 10 10 L 10 7 L 12 7 L 12 10 L 19 10 L 19 3 L 12 3 L 12 6 L 10 6 L 10 3 L 3 3 z M 4 4 L 9 4 L 9 9 L 4 9 L 4 4 z M 13 4 L 18 4 L 18 9 L 13 9 L 13 4 z "
	class="ColorScheme-Text"
    />  
</svg>
